!!!COM: Beethoven, Ludwig van
!!!CDT: 1770///-1827///
!!!OTL: Piano Sonata no. 6 in F major
!!!ODT: 1795///-1797///
!!!OMD: Allegro
!!!OPS: 10
!!!ONM: 2
!!!OMV: 1
**kern	**kern	**dynam
*staff2	*staff1	*staff1/2
*Ipiano	*Ipiano	*Ipiano
*>[A,A1,A,A2,B,B]	*>[A,A1,A,A2,B,B]	*>[A,A1,A,A2,B,B]
*>norep[A,A2,B]	*>norep[A,A2,B]	*>norep[A,A2,B]
*>A	*>A	*>A
*clefF4	*clefG2	*clefG2
*k[b-]	*k[b-]	*k[b-]
*F:	*F:	*F:
*M2/4	*M2/4	*M2/4
*MM118	*MM118	*MM118
8FF'/ 8C'/ 8F'/	8A'/ 8c'/ 8f'/ 8a'/	p
=1	=1	=1
4FF'/ 4C'/ 4F'/	4c'/ 4f'/ 4a'/ 4cc'/	.
4r	8r	.
.	(24cc\LL	.
.	24bn\	.
.	24dd\JJ)	.
=2	=2	=2
4r	4cc\	.
8r	8r	.
8FF'/ 8C'/ 8F'/	8c'/ 8f'/ 8a'/	.
=3	=3	=3
4EE'/ 4C'/ 4E'/	4c'/ 4g'/ 4b-X'/	.
4r	8r	.
.	(24b-\LL	.
.	24a\	.
.	24cc\JJ)	.
=4	=4	=4
2r	4b-\	.
.	8r	.
.	(8b-\	.
=5	=5	=5
4F\ 4A\ 4c\	16a\LL	.
.	16cc\JJ	.
.	4ff\	.
4G\ 4B-\ 4c\	.	.
.	8ee\	<
*clefG2	*	*
=6	=6	=6
4A/ 4c/ 4f/	8ff\	(
.	4aa\	(
4B-/ 4d/ 4f/ 4g/	.	[
.	[8gg\	.
=7	=7	=7
4c/ 4f/ 4a/	8gg\]	>
.	4aa\	)
4e-/ 4f/ 4a/ 4cc/	.	)
.	16bb-\LL	]
.	16ccc\JJ)	.
=8	=8	=8
4d/ 4f/ 4b-/	(8ccc\L	.
.	8bb-\J)	.
4r	4r	.
=9	=9	=9
(4d/ 4f/ 4b-/	(8bb-T\	.
.	16aaq/LL	.
.	16bb-q/JJ	.
.	4ddd\	.
4en/ 4g/ 4cc/	.	.
.	16ccc\LL	.
.	16bb-\JJ)	.
=10	=10	=10
.	(16aaq/LL	.
.	16bb-q/	.
.	16cccq/JJ	.
4f/ 4a/ 4cc/	(8bb-\L)	.
.	[8aa\J)	.
4B-/ 4d/ 4g/	(16.aa\LL]	.
.	32gg\k	.
.	16.bb-\	.
.	32gg\JJk)	.
=11	=11	=11
4c/ 4f/ 4a/	(8gg\L	.
.	[8ff\J)	.
4c/) 4g/ 4b-/	(16.ff\LL]	.
.	32ee\k	.
.	16.gg\	.
.	32ee\JJk)	.
=12	=12	=12
4f/ 4a/	4ff\	.
8r	8r	.
*clefF4	*	*
8FF'/ 8C'/ 8F'/	8A'/ 8c'/ 8f'/ 8a'/	p
=13	=13	=13
4FF'/ 4C'/ 4F'/	4c'/ 4f'/ 4a'/ 4cc'/	.
4r	8r	.
.	(24cc\LL	.
.	24bn\	.
.	24dd\JJ)	.
=14	=14	=14
4r	4cc'\	.
8r	8r	.
8FF/ 8C/ 8D#/	8A'/ 8c'/ 8d#'/ 8a'/	.
=15	=15	=15
4FF/ 4C/ 4D#/	4c'/ 4d#'/ 4a'/ 4cc'/	rfz
4r	8r	.
.	(24cc\LL	.
.	24bn\	.
.	24dd\JJ)	.
=16	=16	=16
*^	*^	*
4r	4ryy	4ryy	4cc'\	.
8r	8ryy	8ryy	8r	.
24A/LL	(8F\	24cc/LL	(8d#\	f
24Bn/	.	24bn/	.	.
24c/JJ	.	24a/JJ	.	.
=17	=17	=17	=17	=17
8G#/L	8E\L)	8ee'/L	8e\L)	.
24A/L	(8F\J	24cc/L	(8d#\J	.
24Bn/	.	24bn/	.	.
24c/JJ	.	24a/JJ	.	.
8G#/L	8E\L)	8ee'/L	8e\L)	.
24A/L	(8F\J	24cc/L	(8d#\J	.
24B/	.	24b'/	.	.
24c/JJ	.	24a/JJ	.	.
=18	=18	=18	=18	=18
4G#/	4E\)	4ee/	4e\)	.
8r	4ryy	4ryy	8r	.
!LO:S:b	!	!	!	!
(16GGn/LL	.	.	8Gn/ 8gn/	p
16BBn/JJ	.	.	.	.
*v	*v	*	*	*
*	*v	*v	*
=19	=19	=19
16C/LL	4E/ (4e/	.
16E/	.	.
16GG/	.	.
16BBn/JJ	.	.
16C/LL	4G/ 4c/ 4e/ 4g/	<
16E/	.	(
16GG/	.	(
16BB/JJ	.	(
=20	=20	=20
16C/LL	4.c/ 4.e/ 4.g/ 4.cc/)	(
16E/	.	(
16GG/	.	(
16BBn/JJ	.	(
16C/LL	.	(
16E/	.	(
16GG/	8e/ (8ee/	(
16BB/JJ	.	[
=21	=21	=21
16C/LL	8g\ 8gg\	.
16E/	.	.
16GG/	4cc\ 4ccc\	sf
16BBn/JJ	.	>
16C/LL	.	)
16E/	.	)
16GG/	16ee\ 16eee\LL	)
16C/JJ	16dd\ 16ddd\JJ)	)
=22	=22	=22
16D/LL	4cc\ (4ccc\	)
16F/	.	)
16GG/	.	)
16C#/JJ	.	]
16D/LL	8bn\ 8bbn\)	.
16F/	.	.
16GG/	8r	.
16C#/JJ	.	.
=23	=23	=23
16D/LL	4Bn/ 4d/ 4f/ (4bn/	<
16F/	.	(
16GG/	.	(
16C#/JJ	.	(
16D/LL	4d/ 4f/ 4b/ 4dd/	(
16F/	.	(
16GG/	.	(
16C#/JJ	.	(
=24	=24	=24
16D/LL	4.f\ 4.bn\ 4.dd\ 4.ff\)	(
16F/	.	(
16GG/	.	(
16C#/JJ	.	(
16D/LL	.	(
16F/	.	(
16GG/	8b\ (8bbn\	(
16C#/JJ	.	[
=25	=25	=25
16D/LL	8dd\ 8ddd\	>
16F/	.	)
16GG/	4ffz\ 4fffz\	)
16C#/JJ	.	)
16D/LL	.	)
16F/	.	]
16GG/	8ee\ 8eee\)	.
16D/JJ	.	.
=26	=26	=26
16E\LL	4dd\ (4ddd\	>
16G\	.	.
16C\	.	.
16D#\JJ	.	.
16E\LL	8cc\ 8ccc\)	.
16G\	.	.
16E\	8r	.
16Dn\JJ)	.	.
=27	=27	=27
(16C\LL	4e/ 4g/ 4cc/ 4ee/	ff
16c\	.	.
16e\	.	.
16d\JJ	.	.
16c\LL	4g\ 4cc\ 4ee\ 4gg\	.
16e\	.	.
16c\	.	.
16Bn\JJ	.	.
=28	=28	=28
16A\LL	4.cc\ 4.ccc\	.
16c\	.	.
16A\	.	.
16G\JJ	.	.
16F#\LL	.	.
16A\	.	.
16F#\	[8cc#\ [8ccc#\	.
16E\JJ	.	.
=29	=29	=29
16D\LL	(8cc#\] 8ccc#\]	.
16E\	.	.
16F#\	4dd\ 4ddd\	.
16G\JJ	.	.
16A\LL	.	.
16D\	.	.
16E\	8ccn\ 8cccn\)	.
16F#\JJ)	.	.
=30	=30	=30
*^	*^	*
!	!	!	!LO:S:a	!
(24G\LL	(4G/	4ryy	(8cc\ 8ccc\L	.
24Bn\	.	.	.	.
24d\	.	.	.	.
24B\	.	.	8bn\ 8bbn\J)	.
24d\	.	.	.	.
24B\JJ)	.	.	.	.
(24A\LL	4A/	8ryy	8r	.
24c\	.	.	.	.
24d\	.	.	.	.
24c\	.	8ff#'/	8cc\	p
24d\	.	.	.	.
24c\JJ)	.	.	.	.
=31	=31	=31	=31	=31
24G\LL	4G/	4gg/	(8cc\L	.
24Bn\	.	.	.	.
24d\	.	.	.	.
24B\	.	.	8bn\J)	.
24d\	.	.	.	.
24B\JJ	.	.	.	.
24F#\LL	4F#/	4r	8r	.
24A\	.	.	.	.
24d\	.	.	.	.
24A\	.	.	8ccc'\	.
24d\	.	.	.	.
24A\JJ	.	.	.	.
=32	=32	=32	=32	=32
24G\LL	4G/	4r	(16ccc\LL	.
24Bn\	.	.	.	.
.	.	.	16bbn\	.
24d\	.	.	.	.
24B\	.	.	16aa\	.
24d\	.	.	.	.
.	.	.	16gg\JJ)	.
24B\JJ	.	.	.	.
24A\LL	4A/	8r	8r	.
24c\	.	.	.	.
24d\	.	.	.	.
24c\	.	8ff#'/	8cc\	.
24d\	.	.	.	.
24c\JJ	.	.	.	.
=33	=33	=33	=33	=33
24G\LL	4G/	4gg/	(16cc\LL	.
24Bn\	.	.	.	.
.	.	.	16bn\	.
24d\	.	.	.	.
24B\	.	.	16a\	.
24d\	.	.	.	.
.	.	.	16g\JJ)	.
24B\JJ	.	.	.	.
24F#\LL	4F#/	4r	8r	.
24A\	.	.	.	.
24d\	.	.	.	.
24A\	.	.	8ccc'\	.
24d\	.	.	.	.
24A\JJ	.	.	.	.
*	*	*v	*v	*
=34	=34	=34	=34
24G\LL	4G/	(16ccc\LL	.
24Bn\	.	.	.
.	.	16bbn\	.
24d\	.	.	.
24B\	.	16aa\	.
24d\	.	.	.
.	.	16gg\JJ)	.
24B\JJ	.	.	.
24F#\LL	4F#/	8r	.
24A\	.	.	.
24d\	.	.	.
24A\	.	8ccc'\	.
24d\	.	.	.
24A\JJ	.	.	.
=35	=35	=35	=35
24G\LL	4G/	(16ccc\LL	.
24Bn\	.	.	.
.	.	16bbn\	.
24d\	.	.	.
24B\	.	16aa\	.
24d\	.	.	.
.	.	16gg\JJ)	.
24B\JJ	.	.	.
24F#\LL	4F#/	8r	.
24A\	.	.	.
24d\	.	.	.
24A\	.	8ccc'\	.
24d\	.	.	.
24A\JJ	.	.	.
*v	*v	*	*
=36	=36	=36
8G\ 8Bn\ 8d\	(16ccc\LL	>
.	16bbn\	.
8r	16aa\	.
.	16gg\JJ	p
4r	16ff#\LL	.
.	16gg\	.
.	16aa\	.
.	16gg\JJ	.
=37	=37	=37
2r	16ff#\LL	.
.	16gg\	.
.	16aa\	.
.	16gg\JJ	.
.	16ff#\LL	.
.	16gg\	.
.	16gg#\	.
.	16aa\JJ)	.
*clefG2	*	*
=38	=38	=38
*^	*	*
4gn/	(8f\L	(8aa\L	.
.	8d\)	8ffn\)	.
8g'/L	8Bn\	8dd'\	.
8g'/J	8c\J	8ee\J	.
=39	=39	=39	=39
4g/	(8f\L	(8aa\L	.
.	8d\)	8ff\)	.
8g'/L	8Bn\	8dd'\	.
8g'/J	8c\J	8ee\J	.
*v	*v	*	*
*clefF4	*	*
=40	=40	=40
8F'\ 8f'\	8a'\ 8dd'\ 8ff'\	.
8r	8r	.
8G'\ 8Bn'\ 8d'\	8g'\ 8bn'\ 8dd'\	.
8r	8r	.
=41	=41	=41
4C'\ 4E'\ 4G'\ 4c'\	4e'\ 4g'\ 4cc'\ 4ee'\	.
*clefG2	*	*
8r	8r	.
(8e-/ 8g/	32r	.
.	(32gg\LLL	ff
.	32ee-\	.
.	32g\JJJ)	.
=42	=42	=42
(8f/) 8a-/L	32r	.
.	32aa-\LLL	.
.	32ff\	.
.	32g\JJJ	.
8d/) 8f/J	32r	.
.	32ff\LLL	.
.	32dd\	.
.	32g\JJJ	.
8Bn'/ 8d'/L	32r	.
.	32dd\LLL	.
.	32bn\	.
.	32g\JJJ	.
8c'/ 8e-'/J	32r	.
.	32ee-\LLL	.
.	32cc\	.
.	32g\JJJ	.
=43	=43	=43
(8f/ 8a-/L	32r	.
.	(32aa-\LLL	.
.	32ff\	.
.	32g\JJJ	.
8d/) 8f/J	32r	.
.	32ff\LLL	.
.	32dd\	.
.	32g\JJJ	.
8Bn'/ 8d'/L	32r	.
.	32dd\LLL	.
.	32bn\	.
.	32g\JJJ	.
8c'/ 8e-'/J	32r	.
.	32ee-\LLL	.
.	32cc\	.
.	32g\JJJ)	.
*clefF4	*	*
=44	=44	=44
8F'\ 8A-'\ 8d'\	8a-'\ 8dd'\ 8ff'\	f
8r	8r	.
8G'\ 8Bn'\ 8d'\	8f'/ 8bn'/ 8dd'/	.
8r	8r	.
=45	=45	=45
8A-'\ 8c'\	8e-'/ 8a-'/ 8cc'/	.
8r	8r	.
4r	4r	.
=46	=46	=46
8F#'\ 8An'\ 8c'\	8e-'/ 8an'/ 8cc'/	pp
8r	8r	.
4r	4r	.
=47	=47	=47
8Fn\ 8G\L	16r	.
.	16d/ 16bn/LL	<
8BBn\ 8G\	16r	.
.	16f/ 16dd/JJ	.
8C\ 8G\	16r	.
.	16en/ 16cc/LL	.
8GG\ 8G\J	16r	.
.	16cc/ 16ee/JJ	.
=48	=48	=48
8D\ 8G\L	16r	.
.	16bn\ 16ff\LL	.
8GG\ 8G\	16r	.
.	16ff\ 16bbn\JJ	.
8C\ 8G\	16r	.
.	16ee\ 16ccc\LL	.
8GG\ 8G\J	16r	.
.	16ccc\ 16eee\JJ	.
=49	=49	=49
8D\ 8G\L	16r	.
.	16bbn\ 16fff\LL	.
8F\ 8G\	16r	.
.	16dd\ 16bb\JJ	.
8E\ 8G\	16r	.
.	16ee\ 16ccc\LL	.
8C\ 8G\J	16r	.
.	16gg\ 16eee\JJ	.
=50	=50	=50
8D\ 8G\L	16r	.
.	16ff\ 16fff\LL	.
8F\ 8G\	16r	.
.	16dd\ 16bbn\JJ	.
8E\ 8G\	16r	.
.	16ee\ 16ccc\LL	.
8C\ 8G\J	16r	.
.	16gg\ 16eee\JJ	.
=51	=51	=51
8FF/ 8AA/ 8D/	8r	.
8r	(24ddd\LL	f
.	24ccc#\	.
.	24eee\JJ)	.
8F\ 8A\ 8d\	8ddd'\	.
8r	(24aa\LL	.
.	24gg#\	.
.	24bbn\JJ)	.
=52	=52	=52
2r	8aa'\	.
.	(24ff\LL	.
.	24ee\	.
.	24gg\JJ)	.
.	8ff'\	.
.	(24dd\LL	.
.	24cc#\	.
.	24ee\JJ)	.
*clefG2	*	*
=53	=53	=53
8r	8dd'\	.
(4d/	(4dd\	.
16e/LL	16ee\LL	.
16f/JJ)	16ff\JJ)	.
=54	=54	=54
4g/	[4gg\	f
4G/ 4Bn/ 4d/ 4f/	(24gg\LL]	.
.	24aa\	.
.	24gg\JJ	.
.	24ff\LL	.
.	24ee\	.
.	24dd\JJ)	.
=55	=55	=55
(24c/LL	4cc\	p
24e/	.	.
24g/JJ)	.	.
24c/LL	.	.
24e/	.	.
24g/JJ	.	.
24c/LL	8gg'\L	p
24e/	.	.
24g/JJ	.	.
24c/LL	8gg'\J	.
24e/	.	.
24g/JJ	.	.
=56	=56	=56
24c/LL	8ee'\	.
24e/	.	.
24g/JJ	.	.
24c/LL	8r	.
24e/	.	.
24g/JJ	.	.
24c/LL	8cc'\ 8ccc'\L	.
24e/	.	.
24g/JJ	.	.
24c/LL	8cc'\ 8ccc'\J	.
24e/	.	.
24g/JJ	.	.
*clefF4	*	*
=57	=57	=57
24F\ 24A\LL	8a'\ 8aa'\	.
24c\	.	.
24d\JJ	.	.
24F\ 24A\LL	8r	.
24c\	.	.
24d\JJ	.	.
*	*clefF4	*clefF4
24F#\ 24A\LL	8FF#'/L	f
24c\	.	.
24d\JJ	.	.
24F#\ 24A\LL	8FF#'/J	.
24c\	.	.
24d\JJ	.	.
=58	=58	=58
.	(FF#q/	.
24G\LL	2GG/)	ff
24c\	.	.
24e\JJ	.	.
24G\LL	.	.
24c\	.	.
24e\JJ	.	.
24G\LL	.	.
24Bn\	.	.
24d\JJ	.	.
24G\LL	.	.
24B\	.	.
24d\JJ	.	.
=59	=59	=59
32C\LLL	4CC/	p
32E\	.	.
32G\	.	.
32c\JJJ	.	.
32C\LLL	.	.
32E\	.	.
32G\	.	.
32c\JJJ	.	.
*	*clefG2	*clefG2
32C\LLL	(32g\LLK	p
32E\	16.gg'\JJ)	.
32G\	.	.
32c\JJJ	.	.
32C\LLL	(32g\LLK	.
32E\	16.gg'\JJ)	.
32G\	.	.
32c\JJJ	.	.
=60	=60	=60
32C\LLL	(32e\LLK	.
32E\	16.ee'\JJ)	.
32G\	.	.
32c\JJJ	.	.
32C\LLL	8r	.
32E\	.	.
32G\	.	.
32c\JJJ	.	.
24E\LL	(32cc\LLK	.
.	16.ccc'\JJ)	.
24G\	.	.
24c\JJ	.	.
24E\LL	(32cc\LLK	.
.	16.ccc'\JJ)	.
24G\	.	.
24c\JJ	.	.
=61	=61	=61
32F\LLL	(32a\LLK	.
32A\	16.aa'\JJ)	.
32c\	.	.
32d\JJJ	.	.
32F\LLL	8r	.
32A\	.	.
32c\	.	.
32d\JJJ	.	.
*	*clefF4	*clefF4
32F#\LLL	8FF#'/L	f
32A\	.	.
32c\	.	.
32d\JJJ	.	.
32F#\LLL	8FF#'/J	.
32A\	.	.
32c\	.	.
32d\JJJ	.	.
=62	=62	=62
.	(FFq/	.
24G\LL	2GG/)	ff
24c\	.	.
24e\JJ	.	.
24G\LL	.	.
24c\	.	.
24e\JJ	.	.
24G\LL	.	.
24Bn\	.	.
24d\JJ	.	.
24G\LL	.	.
24B\	.	.
24d\JJ	.	.
=63	=63	=63
32C\LLL	4CC/	.
32E\	.	.
32G\	.	.
32c\JJJ	.	.
32C\LLL	.	.
32E\	.	.
32G\	.	.
32c\JJJ	.	.
*	*clefG2	*clefG2
24C\LL	8ff#'\L	<
24E-\	.	.
24G\JJ	.	.
24C\LL	8ff#'\J	.
24E-\	.	.
24G\JJ	.	.
=64	=64	=64
.	(ff#q/	.
32GG/LLL	2gg\)	ff
32C/	.	.
32D/	.	.
32G/JJJ	.	.
32GG/LLL	.	.
32C/	.	.
32D/	.	.
32G/JJJ	.	.
32GG/LLL	.	.
32BBn/	.	.
32D/	.	.
32G/JJJ	.	.
32GG/LLL	.	.
32BB/	.	.
32D/	.	.
32G/JJJ	.	.
=65	=65	=65
8C'/	8cc'\ 8ccc'\	ff
8r	8r	.
8GG'/ 8G'/	8g'\ 8gg'\	.
8r	8r	.
=66	=66	=66
*>A1	*>A1	*>A1
4CC/ 4C/	4c/ 4cc/	.
8r	8r	.
=67:|!	=67:|!	=67:|!
*>A2	*>A2	*>A2
4CC/ 4C/	4c/ 4cc/	.
4r	4r	.
=68!|:	=68!|:	=68!|:
*>B	*>B	*>B
8AA'/ 8A'/	8a'\ 8aa'\	p
8r	8r	.
8EE'/ 8E'/	8e'\ 8ee'\	.
8r	8r	.
=69	=69	=69
8AAA'/ 8AA'/	8A'/ 8a'/	.
8r	8r	.
4r	4r	.
=70	=70	=70
8d\	24r	.
.	(24dd\LL	.
.	24ee\JJ	.
8r	24ff\LL	.
.	24ee\	.
.	24dd\JJ)	.
8A\	24r	.
.	(24aa\LL	.
.	24bbn\JJ	.
8r	24ccc#\LL	.
.	24bb\	.
.	24aa\JJ)	.
=71	=71	=71
8D\	16r	.
.	(16ddd\LL	.
8r	16ccc#\	.
.	16ddd\JJ	.
4r	16eee\LL	.
.	16ddd\	.
.	16fff\	.
.	16ddd\JJ)	.
=72	=72	=72
8A\	24r	.
.	(24ccc#\LL	.
.	24ddd\JJ	.
8r	24eee\LL	.
.	24ddd\	.
.	24ccc#\JJ)	.
8E\	24r	.
.	(24ccc#\LL	.
.	24ddd\JJ	.
8r	24eee\LL	.
.	24ddd\	.
.	24ccc#\JJ)	.
=73	=73	=73
8AA/	16r	.
.	(16ccc#\LL	.
8r	16eee\	.
.	16ddd\JJ	.
4r	16ccc#\LL	.
.	16bb-\	.
.	16aa\	.
.	16gg\JJ)	.
=74	=74	=74
24r	8dd\ 8ff\ 8aa\	f
(24DD/LL	.	.
24EE/JJ	.	.
24FF/LL	8r	.
24EE/	.	.
24DD/JJ)	.	.
24r	8a\ 8cc#\ 8ee\ 8aa\	.
(24AA/LL	.	.
24BBn/JJ	.	.
24C#/LL	8r	.
24BB/	.	.
24AA/JJ)	.	.
=75	=75	=75
24r	8d/ 8f/ 8a/ 8dd/	.
(24D\LL	.	.
24E\JJ	.	.
24F\LL	8r	.
24E\	.	.
24D\JJ)	.	.
(16A\LL	4r	.
16F\	.	.
16E\	.	.
16D\JJ)	.	.
=76	=76	=76
24r	8a\ 8cc#\ 8ee\ 8aa\	.
(24AA/LL	.	.
24BBn/JJ	.	.
24C#/LL	8r	.
24BB/	.	.
24AA/JJ)	.	.
24r	8e\ 8g#\ 8bn\ 8ee\	.
(24E\LL	.	.
24F#\JJ	.	.
24G#\LL	8r	.
24F#\	.	.
24E\JJ)	.	.
=77	=77	=77
16r	8c#/ 8e/ 8a/	.
(16G#\LL	.	.
16A\	8r	.
16B-\JJ	.	.
16A\LL	4r	.
16Gn\	.	.
16Fn\	.	.
16E\JJ)	.	.
=78	=78	=78
8DD'/	24r	.
.	24f\LL	.
.	24ff\JJ	.
8D\ 8F\ 8A\L	24r	.
.	24g#\LL	.
.	24gg#\JJ	.
8D\ 8F\ 8A\	24r	.
.	24a\LL	.
.	24aa\JJ	.
8D\ 8F\ 8A\J	24r	.
.	24d\LL	.
.	24dd\JJ	.
=79	=79	=79
8EE'/	24r	.
.	24d/LL	.
.	24dd/JJ	.
8E\ 8G\ 8A\L	24r	.
.	24c#/LL	.
.	24cc#/JJ	.
8E\ 8G\ 8A\	24r	.
.	24c#/LL	.
.	24cc#/JJ	.
8E\ 8G\ 8A\J	24r	.
.	24e/LL	.
.	24ee/JJ	.
=80	=80	=80
8FF'/	24r	.
.	24e/LL	.
.	24ee/JJ	.
8F\ 8A\L	24r	.
.	24d/LL	.
.	24dd/JJ	.
8F\ 8A\	24r	.
.	24d/LL	.
.	24dd/JJ	.
8F\ 8A\J	24r	.
.	24f/LL	.
.	24ff/JJ	.
=81	=81	=81
8CC#'/	24r	.
.	24f\LL	.
.	24ff\JJ	.
8C#\ 8A\L	24r	.
.	24e\LL	.
.	24ee\JJ	.
8C#\ 8A\	24r	.
.	24e\LL	.
.	24ee\JJ	.
8C#\ 8A\J	24r	.
.	24g\LL	.
.	24gg\JJ	.
=82	=82	=82
8D'\L	24r	.
.	24g\LL	<
.	24gg\JJ	.
8d'\J	24r	.
.	24f\LL	.
.	24ff\JJ	.
8Cn\L	24r	.
.	24g\LL	.
.	24gg\JJ	.
8cn'\J	24r	.
.	24f#\LL	.
.	24ff#\JJ	.
=83	=83	=83
8BB-'\L	24r	.
.	24a\LL	.
.	24aa\JJ	.
8B-'\J	24r	.
.	24g\LL	.
.	24gg\JJ	.
8FF#'/L	24r	.
.	24b-\LL	.
.	24bb-\JJ	.
8F#'/J	24r	.
.	24a\LL	.
.	24aa\JJ	.
=84	=84	=84
8GG'/	24r	.
.	24cc\LL	.
.	24ccc\JJ	.
8G\ 8B-\ 8d\L	24r	.
.	24b-\LL	.
.	24bb-\JJ	.
8G\ 8B-\ 8d\	24r	.
.	24dd\LL	.
.	24ddd\JJ	.
8G\ 8B-\ 8d\J	24r	.
.	24g\LL	.
.	24gg\JJ	.
=85	=85	=85
8AA'/	24r	.
.	24g\LL	.
.	24gg\JJ	.
8A\ 8c\ 8d\L	24r	.
.	24e\LL	.
.	24ee\JJ	.
8A\ 8c\ 8d\	24r	.
.	24f#\LL	.
.	24ff#\JJ	.
8A\ 8c\ 8d\J	24r	.
.	24a\LL	.
.	24aa\JJ	.
=86	=86	=86
8BB-'/	24r	.
.	24a\LL	.
.	24aa\JJ	.
8B-\ 8d\L	24r	.
.	24f#\LL	.
.	24ff#\JJ	.
8B-\ 8d\	24r	.
.	24g\LL	.
.	24gg\JJ	.
8B-\ 8d\J	24r	.
.	24b-\LL	.
.	24bb-\JJ	.
=87	=87	=87
8F#'\	24r	.
.	24b-\LL	.
.	24bb-\JJ	.
8c\ 8d\L	24r	.
.	24g#\LL	.
.	24gg#\JJ	.
8c\ 8d\	24r	.
.	24a\LL	.
.	24aa\JJ	.
8c\ 8d\J	24r	.
.	24cc\LL	.
.	24ccc\JJ	<
=88	=88	=88
8G'\L	24r	.
.	24cc\LL	.
.	24ccc\JJ	.
8g'\J	24r	.
.	24b-\LL	.
.	24bb-\JJ	.
8Fn'\L	24r	.
.	24cc\LL	.
.	24ccc\JJ	.
8fn'\J	24r	.
.	24bn\LL	.
.	24bbn\JJ	.
=89	=89	=89
8E-'\L	24r	.
.	24dd\LL	.
.	24ddd\JJ	.
8e-'\J	24r	.
.	24cc\LL	.
.	24ccc\JJ	.
8BBn'\L	24r	.
.	24ee-\LL	.
.	24eee-\JJ	.
8Bn'\J	24r	.
.	24dd\LL	.
.	24ddd\JJ	.
=90	=90	=90
8C'\L	24r	ff
.	24ff\LL	.
.	24fff\JJ	.
8c'\J	24r	.
.	24ee-\LL	.
.	24eee-\JJ	.
8BB-'\L	24r	.
.	24ff\LL	.
.	24fff\JJ	.
8B-'\J	24r	.
.	24een\LL	.
.	24eeen\JJ	.
=91	=91	=91
8AA'\L	24r	.
.	24ff\LL	.
.	24fff\JJ	.
8A'\J	24r	.
.	24cc\LL	.
.	24ccc\JJ	.
8FF'\L	24r	.
.	24ff\LL	.
.	24fff\JJ	.
8F'\J	24r	.
.	24ee-\LL	.
.	24eee-\JJ	.
=92	=92	=92
8BB-'/	24r	.
.	24ee-\LL	.
.	24eee-\JJ	.
8B-\ 8d\ 8f\L	24r	.
.	24dd\LL	.
.	24ddd\JJ	.
8B-\ 8d\ 8f\	24r	.
.	24ff\LL	.
.	24fff\JJ	.
8B-\ 8d\ 8f\J	24r	.
.	24b-\LL	.
.	24bb-\JJ	.
=93	=93	=93
8C/	24r	.
.	24b-\LL	.
.	24bb-\JJ	.
8c\ 8e-\ 8f\L	24r	.
.	24g#\LL	.
.	24gg#\JJ	.
8c\ 8e-\ 8f\	24r	.
.	24a\LL	.
.	24aa\JJ	.
8c\ 8e-\ 8f\J	24r	.
.	24cc\LL	.
.	24ccc\JJ	.
=94	=94	=94
8D'\	24r	.
.	24cc\LL	<
.	24ccc\JJ	.
8d\L	24r	.
.	24a\LL	.
.	24aa\JJ	.
8d\ 8f\	24r	.
.	24b-\LL	.
.	24bb-\JJ	.
8d\ 8f\J	24r	.
.	24dd\LL	.
.	24ddd\JJ	.
=95	=95	=95
8A'\	24r	.
.	24dd\LL	.
.	24ddd\JJ	.
8c\ 8e-\ 8f\L	24r	.
.	24bn\LL	.
.	24bbn\JJ	.
8c\ 8e-\ 8f\	24r	.
.	24cc\LL	.
.	24ccc\JJ	.
8c\ 8e-\ 8f\J	24r	.
.	24ee-\LL	.
.	24eee-\JJ	.
*clefG2	*	*
=96	=96	=96
8b-/	24r	p
.	(24ddd\LL	.
.	24eee-\JJ	.
8r	24fff\LL	.
.	24eee-\	.
.	24ddd\JJ)	.
8f/	24r	.
.	(24ddd\LL	.
.	24eee-\JJ	.
8r	24fff\LL	.
.	24eee-\	.
.	24ddd\JJ)	.
=97	=97	=97
8B-/	24r	.
.	(24ddd\LL	.
.	24eee-\JJ	.
8r	24fff\LL	.
.	24eee-\	.
.	24eee-\JJ)	.
4r	(16eeen\LL	.
.	16fff\	.
.	16ddd\	.
.	16bb-\JJ)	.
=98	=98	=98
8f/	24r	.
.	(24aa\LL	.
.	24bb-\JJ	.
8r	24ccc\LL	.
.	24bb-\	.
.	24aa\JJ)	.
8c/	24r	.
.	(24aa\LL	.
.	24bb-\JJ	.
8r	24ccc\LL	.
.	24bb-\	.
.	24aa\JJ)	.
*clefF4	*	*
=99	=99	=99
8F\	24r	.
.	(24aa\LL	.
.	24bb-\JJ	.
8r	24ccc\LL	.
.	24bb-\	.
.	24aa\JJ)	.
4r	(16eee-\LL	.
.	16ccc\	.
.	16aa\	.
.	16ee-\JJ)	.
=100	=100	=100
24r	8b-\ 8dd-\ 8ff\ 8bb-\	<
(24BB-/LL	.	.
24C/JJ	.	.
24D-/LL	8r	.
24C/	.	.
24BB-/JJ)	.	.
24r	8f\ 8b-\ 8dd-\ 8ff\	.
(24BB-/LL	.	.
24C/JJ	.	.
24D-/LL	8r	.
24C/	.	.
24BB-/JJ)	.	.
=101	=101	=101
24r	8d-/ 8f/ 8b-/ 8dd-/	.
(24BB-/LL	.	.
24C/JJ	.	.
24D-/LL	8r	.
24C/	.	.
24BB-/JJ)	.	.
(16F/LL	4r	.
16D-/	.	.
16C/	.	.
16BB-/JJ)	.	.
=102	=102	=102
24r	8e-/ 8f/ 8a/ 8ee-/	f
(24FF/LL	.	.
24GG/JJ	.	.
24AA/LL	8r	.
24GG/	.	.
24FF/JJ)	.	.
24r	8e-/ 8f/ 8a/ 8cc/	.
(24AA/LL	.	.
24BB-/JJ	.	.
24C/LL	8r	.
24BB-/	.	.
24AA/JJ)	.	.
=103	=103	=103
24r	8c/ 8e-/ 8f/ 8a/	.
(24C/LL	.	.
24D-/JJ	.	.
24E-/LL	8r	.
24D-/	.	.
24C/JJ)	.	.
16F/LL	4r	.
(16E-/	.	.
16D-/	.	.
16C/JJ)	.	.
=104	=104	=104
8B-\	24r	.
.	(24b-\LL	p
.	24cc\JJ	.
8r	24dd-\LL	.
.	24cc\	.
.	24b-\JJ)	.
8F\	24r	.
.	(24b-\LL	.
.	24cc\JJ	.
8r	24dd-\LL	.
.	24cc\	.
.	24b-\JJ)	.
=105	=105	=105
8BB-/	24r	.
.	(24b-\LL	.
.	24cc\JJ	.
8r	24dd-\LL	.
.	24cc\	.
.	24b-\JJ)	.
4r	(16bb-\LL	.
.	16ff\	.
.	16ddd-\	.
.	16ff\JJ)	.
=106	=106	=106
8C/	24r	.
.	(24een\LL	.
.	24ff\JJ	.
8r	24gg\LL	.
.	24ff\	.
.	24ee\JJ)	.
8GG/	24r	.
.	(24ee\LL	.
.	24ff\JJ	.
8r	24gg\LL	.
.	24ff\	.
.	24ee\JJ)	.
=107	=107	=107
8CC/	24r	.
.	(24ee\LL	.
.	24ff\JJ	.
8r	24gg\LL	.
.	24ff\	.
.	24ee\JJ	.
4r	16bb-\LL	.
.	16gg\	.
.	16ee\	.
.	16b-\JJ)	.
=108	=108	=108
8F\	24r	.
.	(24a-/LL	.
.	24b-/JJ	.
8r	24cc/LL	.
.	24b-/	.
.	24a-/JJ)	.
8C/	24r	.
.	(24a-/LL	.
.	24b-/JJ	.
8r	24cc/LL	.
.	24b-/	.
.	24a-/JJ)	.
=109	=109	=109
8FF/	24r	.
.	(24a-/LL	.
.	24b-/JJ	.
8r	24cc/LL	.
.	24b-/	.
.	24a-/JJ)	.
4r	(16ff\LL	.
.	16a-\	.
.	16aa-\	.
.	16a-\JJ)	.
=110	=110	=110
8D-/	24r	f
.	(24ff\LL	.
.	24gg\JJ	.
8r	24aa-\LL	.
.	24gg\	.
.	24ff\JJ)	.
8AA-/	24r	.
.	(24ff\LL	.
.	24gg\JJ	.
8r	24aa-\LL	.
.	24gg\	.
.	24ff\JJ)	.
=111	=111	=111
8DD-/	24r	.
.	(24ff\LL	.
.	24gg\JJ	.
8r	24aa-\LL	.
.	24gg\	.
.	24ff\JJ)	.
8CC/	(16aa-\LL	.
.	16ff\	.
8r	16fff\	.
.	16ff\JJ)	.
=112	=112	=112
8BBBn/	24r	ff
.	(24ff\LL	.
.	24gg\JJ	.
8r	24aa-\LL	.
.	24gg\	.
.	24ff\JJ)	.
4r	(16dddn\LL	.
.	16ff\	.
.	16ddd\	.
.	16ff\JJ)	.
=113	=113	=113
4BBB-/	24r	.
.	(24ff\LL	.
.	24gg\JJ	.
.	24aa-\LL	.
.	24gg\	.
.	24ff\JJ)	.
4r	(16ddd\LL	.
.	16ff\	.
.	16ddd\	.
.	16ff\JJ)	.
=114	=114	=114
4AAAn/	24r	.
.	(24ff\LL	.
.	24gg\JJ	.
.	24aan\LL	.
.	24gg\	.
.	24ff\JJ)	.
4r	(16ddd\LL	>
.	16ff\	.
.	16ddd\	.
.	16ff\JJ	.
=115	=115	=115
2r	16ddd\LL	.
.	16ff\	.
.	16ddd\	.
.	16ff\JJ	.
.	16ddd\LL	.
.	16ff\	.
.	16ddd\	.
.	16ff\JJ)	.
=116	=116	=116
4AAA/ 4AA/	16r	.
.	(16ee\LL	p
.	16ddd\	.
.	16ee\JJ	.
4r	16ddd\LL	.
.	16ee\	.
.	16ddd\	.
.	16ee\JJ)	.
=117	=117	=117
4AAA/ 4AA/	16r	.
.	(16ee\LL	pp
.	16ccc#\	.
.	16ee\JJ	.
4r	16ccc#\LL	.
.	16ee\	.
.	16ccc#\	.
.	16ee\JJ)	.
=118	=118	=118
4r	4r	.
8r;	8r;	.
=	=	=
*k[f#c#]	*k[f#c#]	*k[f#c#]
8D'\ 8A'\	8d'/ 8f#'/	p
=119	=119	=119
4D'\ 4A'\	4d'/ 4f#'/ 4a'/	.
4r	8r	.
.	(24aa\LL	.
.	24gg#\	.
.	24bb\JJ)	.
=120	=120	=120
4r	4aa'\	.
8r	8r	.
8D'\ 8A'\	8d'/ 8f#'/	.
=121	=121	=121
4C#'\ 4A'\	4e'/ 4g'/	.
4r	8r	.
.	(24aa\LL	.
.	24gg#\	.
.	24bb\JJ)	.
=122	=122	=122
2r	4aa'\	.
.	8r	.
.	(8gn/	.
=123	=123	=123
4D\ 4F#\ 4A\	16.f#/LL	<
.	32a/JJk	.
.	4dd\	.
4E\ 4G\ 4A\ 4c#\	.	.
.	8cc#\	.
=124	=124	=124
4F#\ 4A\ 4d\	8dd\	<
.	4ff#\	.
4G\ 4B\ 4d\	.	.
.	[8ee\	.
*clefG2	*	*
=125	=125	=125
4A/ 4cn/ 4d/ 4f#/	8ee\]	>
.	4ff#\	.
4c/ 4d/ 4f#/ 4a/	.	.
.	16gg\LL	.
.	16aa\JJ)	.
=126	=126	=126
4B/ 4d/ 4g/	(8aa\L	.
.	8gg\J)	.
4r	4r	.
=127	=127	=127
(4B/ 4d/ 4g/	(8gg\	.
.	ff#q/LL	.
.	ggq/JJ	.
.	4bb\	.
4c#/ 4e/ 4a/	.	.
.	16aa\LL	.
.	16gg\JJ)	.
=128	=128	=128
.	ff#q/LL	.
.	ggq/	.
.	aaq/JJ	.
4d/ 4f#/ 4a/	8gg\L	.
.	[8ff#\J	.
4G/ 4B/ 4e/	16.ff#\LL]	.
.	32ee\k	.
.	16.gg\	.
.	32ee\JJk	.
=129	=129	=129
4A/ 4d/ 4f#/	8ee\L	.
.	[8dd\J	.
4A/ 4e/ 4g/	16.dd\LL]	.
.	32cc#\k	.
.	16.ee\	.
.	32cc#\JJk	.
=130	=130	=130
4d/) 4f#/	4dd\	.
4r	4r	.
=131	=131	=131
*clefF4	*	*
4r	4r	.
8r	8r	.
8D\ 8d\	8f#'/ 8a'/	pp
=132	=132	=132
4G'\ 4d'\	4g'/ 4b-'/	.
4r	8r	.
.	(24bb-\LL	.
.	24aa\	.
.	24cccn\JJ)	.
=133	=133	=133
4r	4bb-'\	.
8r	8r	.
8G'\ 8d'\	8g'/ 8b-'/	.
=134	=134	=134
4Cn'\ 4cn'\	4e'/ 4b-'/	.
4r	8r	.
.	(24bb-\LL	pp
.	24aa\	.
.	24cccn\JJ)	.
=135	=135	=135
2r	4bb-'\	.
.	8r	.
.	(24bb-\LL	.
.	24aa\	.
.	24cccn\JJ)	.
=136	=136	=136
2r	8bb-'\L	.
.	(24bb-\L	.
.	24aa\	.
.	24cccn\JJ)	.
.	8bb-'\L	.
.	(24bb-\L	.
.	24aa\	.
.	24ccc\JJ)	.
=137	=137	=137
4r	4bb-'\	.
8r	8r	.
=	=	=
*k[b-]	*k[b-]	*k[b-]
8r	(8b-\	p
=138	=138	=138
(4F\ 4A\ 4c\	16.a\LL	.
.	32cc\JJk	.
.	4ff\	.
4G\ 4B-\ 4c\	.	.
.	8ee\)	.
*clefG2	*	*
=139	=139	=139
4A/ 4c/ 4f/	8ff\	.
.	4aa\	.
4B-/ 4d/ 4f/ 4g/	.	.
.	[8gg\	.
=140	=140	=140
4c/ 4f/ 4a/	8gg\]	>
.	4aa\	.
4e-/ 4f/ 4a/ 4cc/	.	.
.	16bb-\LL	.
.	16ccc\JJ	.
=141	=141	=141
4d/) 4f/ 4b-/	8ccc\L	.
.	8bb-\J	.
4r	4r	.
=142	=142	=142
(4d/ 4f/ 4b-/	(8bb-\	.
.	aaq/LL	.
.	bb-q/JJ	.
.	4ddd\	.
4en/ 4g/ 4cc/	.	.
.	16ccc\LL	.
.	16bb-\JJ)	.
=143	=143	=143
.	aaq/LL	.
.	bb-q/	.
.	cccq/JJ	.
4f/ 4a/ 4cc/	8bb-\L	.
.	[8aa\J	.
4B-/ 4d/ 4g/	16.aa\LL]	.
.	32gg\k	.
.	16.bb-\	.
.	32gg\JJk	.
=144	=144	=144
4c/ 4f/ 4a/	8gg\L	.
.	[8ff\J	.
8c/) 8g/ 8b-/	16.ff\LL]	.
.	32ee\k	.
8r	16.gg\	.
.	32ee\JJk	.
=145	=145	=145
*clefF4	*	*
16FF/LL	4ff\	.
16AA/	.	.
16CC/	.	.
16EE/JJ	.	.
16FF/LL	8r	.
16AA/	.	.
16CC/	8F/ (8f/	.
16EE/JJ	.	.
=146	=146	=146
16FF/LL	4A/ 4c/ 4f/ 4a/	<
16AA/	.	.
16CC/	.	.
16EE/JJ	.	.
16FF/LL	4c/ 4f/ 4a/ 4cc/)	.
16AA/	.	.
16CC/	.	.
16EE/JJ	.	.
=147	=147	=147
16FF/LL	4.f\ 4.a\ 4.cc\ (4.ff\	.
16AA/	.	.
16CC/	.	.
16EE/JJ	.	.
16FF/LL	.	.
16AA/	.	.
16CC/	8a\ 8cc\ 8ff\ 8aa\)	.
16EE/JJ	.	.
=148	=148	=148
16FF/LL	8cc\ 8ff\ 8aa\ (8ccc\	.
16AA/	.	.
16CC/	4ff\ 4aa\ 4ccc\ 4fff\	.
16EE/JJ	.	.
16FF/LL	.	.
16AA/	.	.
16CC/	8ff\ 8aa\ 8ccc\ 8fff\)	.
16FF/JJ	.	.
=149	=149	=149
16GG/LL	4ff\ 4bb-\ 4ccc\ (4fff\	.
16BB-/	.	.
16CC/	.	.
16FF#/JJ	.	.
16GG/LL	8ee\ 8bb-\ 8ccc\ 8eee\)	.
16BB-/	.	.
16CC/	8r	.
16FF#/JJ	.	.
=150	=150	=150
16GG/LL	4E/ 4G/ 4B-/ (4e/	<
16BB-/	.	.
16CC/	.	.
16FF#/JJ	.	.
16GG/LL	4G/ 4B-/ 4e/ 4g/	.
16BB-/	.	.
16CC/	.	.
16FF#/JJ	.	.
=151	=151	=151
16GG/LL	4.B-/ 4.e/ 4.g/ 4.b-/)	.
16BB-/	.	.
16CC/	.	.
16FF#/JJ	.	.
16GG/LL	.	.
16BB-/	.	.
16CC/	8e/ (8ee/	.
16FF#/JJ	.	.
=152	=152	=152
16GG/LL	8g\ 8gg\	.
16BB-/	.	.
16CC/	4b-\ 4bb-\	.
16FF#/JJ	.	.
16GG/LL	.	.
16BB-/	.	.
16CC/	8a\ 8aa\)	.
16GG/JJ	.	.
=153	=153	=153
16AA/LL	4g\ (4gg\	.
16C/	.	.
16FF/	.	.
16GG#/JJ	.	.
16AA/LL	8f\ 8ff\)	.
16C/	.	.
16FF/	8r	.
16AA-/JJ	.	.
=154	=154	=154
*^	*	*
4r	[2C\	16f/LL	p
.	.	16a-/	.
.	.	16c/	.
.	.	16e/JJ	.
[4F/	.	16f/LL	.
.	.	16a-/	.
.	.	16c/	.
.	.	16e/JJ	.
*v	*v	*	*
=155	=155	=155
4.C\] 4.F\] 4.A-\	16f/LL	>
.	16a-/	.
.	16c/	.
.	16e/JJ	.
.	16f/LL	.
.	16a-/	.
8F\ 8A-\	16c/	.
.	16e/JJ	.
=156	=156	=156
8F\ 8A-\L	16f/LL	.
.	16a-/	.
8F\ 8A-\	16c/	.
.	16e/JJ	.
8F\ 8A-\	16f/LL	.
.	16g/	.
8F\ 8A-\J	16a-/	.
.	16f/JJ	.
=157	=157	=157
4E-\ 4G\ 4B-\	16g/LL	.
.	16b-/	.
.	16e-/	.
.	16f#/JJ	.
4r	16g/LL	.
.	16b-/	.
.	16e-/	.
.	16f#/JJ	.
=158	=158	=158
*^	*	*
4r	[2E-\	16g/LL	<
.	.	16b-/	.
.	.	16e-/	.
.	.	16f#/JJ	.
[4G/	.	16g/LL	.
.	.	16b-/	.
.	.	16e-/	.
.	.	16f#/JJ	.
*v	*v	*	*
=159	=159	=159
4.E-\] 4.G\] 4.B-\	16g/LL	>
.	16b-/	.
.	16e-/	.
.	16f#/JJ	.
.	16g/LL	.
.	16b-/	.
8B-\ 8d-\	16e-/	.
.	16f#/JJ	.
=160	=160	=160
8B-\ 8d-\L	16g/LL	.
.	16b-/	.
8B-\ 8d-\	16e-/	.
.	16f#/JJ	.
8B-\ 8d-\	16g/LL	.
.	16b-/	.
8B-\ 8d-\J	16e-/	.
.	16g/JJ	.
=161	=161	=161
4A-\ 4c\	16a-/LL	.
.	16cc/	.
.	16e-/	.
.	16g/JJ	.
4e-\	16an/LL	<
.	16cc/	.
.	16f/	.
.	16a/JJ	.
=162	=162	=162
4dn\	16b-/LL	>
.	16ff/	.
.	16f/	.
.	16a/JJ	.
4d-\	16bn/LL	.
.	16f/	.
.	16ff/	.
.	16b/JJ	.
=163	=163	=163
*^	*	*
(24C\LL	4C/	4cc\	f
24E\	.	.	.
24G\	.	.	.
24E\	.	.	.
24G\	.	.	.
24E\JJ)	.	.	.
(24BBn\LL	4BBn/	8r	.
24D\	.	.	.
24G\	.	.	.
24D\	.	8fff\	p
24G\	.	.	.
24D\JJ)	.	.	.
=164	=164	=164	=164
*	*	*^	*
24C\LL	4C/	(8fff\L	4r	.
24E\	.	.	.	.
24G\	.	.	.	.
24E\	.	8eee\J)	.	.
24G\	.	.	.	.
24E\JJ	.	.	.	.
24D\LL	4D/	8r	8r	.
24F\	.	.	.	.
24G\	.	.	.	.
24F\	.	8bbn'/	8ff\	.
24G\	.	.	.	.
24F\JJ	.	.	.	.
=165	=165	=165	=165	=165
24C\LL	4C/	4ccc/	(8ff\L	.
24E\	.	.	.	.
24G\	.	.	.	.
24E\	.	.	8ee\J)	.
24G\	.	.	.	.
24E\JJ	.	.	.	.
24BBn\LL	4BBn/	4r	8r	.
24D\	.	.	.	.
24G\	.	.	.	.
24D\	.	.	8fff\	.
24G\	.	.	.	.
24D\JJ	.	.	.	.
=166	=166	=166	=166	=166
24C\LL	4C/	4r	(16fff\LL	.
24E\	.	.	.	.
.	.	.	16eee\	.
24G\	.	.	.	.
24E\	.	.	16ddd\	.
24G\	.	.	.	.
.	.	.	16ccc\JJ)	.
24E\JJ	.	.	.	.
24D\LL	4D/	8r	8r	.
24F\	.	.	.	.
24G\	.	.	.	.
24F\	.	8bbn'/	8ff\	.
24G\	.	.	.	.
24F\JJ	.	.	.	.
=167	=167	=167	=167	=167
24C\LL	4C/	4ccc/	(16ff\LL	.
24E\	.	.	.	.
.	.	.	16ee\	.
24G\	.	.	.	.
24E\	.	.	16dd\	.
24G\	.	.	.	.
.	.	.	16cc\JJ)	.
24E\JJ	.	.	.	.
24D\LL	4D/	8r	8r	.
24F\	.	.	.	.
24G\	.	.	.	.
24F\	.	8bbn'/	8ff\	.
24G\	.	.	.	.
24F\JJ	.	.	.	.
=168	=168	=168	=168	=168
24C\LL	4C/	4ccc/	(16ff\LL	.
24E\	.	.	.	.
.	.	.	16ee\	.
24G\	.	.	.	.
24E\	.	.	16dd\	.
24G\	.	.	.	.
.	.	.	16cc\JJ)	.
24E\JJ	.	.	.	.
24D\LL	4D/	8r	8r	.
24F\	.	.	.	.
24G\	.	.	.	.
24F\	.	8bbn'/	8ff\	.
24G\	.	.	.	.
24F\JJ	.	.	.	.
*v	*v	*	*	*
=169	=169	=169	=169
4C\ 4E\ 4G\	4ccc/	(16ff\LL	>
.	.	16ee\	.
.	.	16dd\	.
.	.	16cc\JJ	.
4r	4r	16bn\LL	p
.	.	16cc\	.
.	.	16dd\	.
.	.	16cc\JJ	.
*	*v	*v	*
=170	=170	=170
2r	16bn\LL	.
.	16cc\	.
.	16dd\	.
.	16cc\JJ	.
.	16b\LL	.
.	16cc\	<
.	16cc#\	.
.	16dd\JJ)	.
=171	=171	=171
*^	*	*
(4c/	8B-\L	(8dd\L	.
.	8G\J)	8b-\J)	.
8c'/L	8E'\L	8g'/L	.
8c'/J	8F\J	8a'/J	.
=172	=172	=172	=172
4c/	(8B-\L	(8dd\L	.
.	8G\J)	8b-\J)	.
8c/L	8E'\L	8g'/L	.
8c/J	8F'\J	8a'/J	.
*v	*v	*	*
=173	=173	=173
8BB-'\ 8B-'\	8d'/ 8b-'/	.
8r	8r	.
8C'\ 8E'\ 8G'\	8c'/ 8e'/ 8g'/	.
8r	8r	.
=174	=174	=174
4FF'/ 4C'/ 4F'/	4c'/ 4f'/ 4a'/	.
*clefG2	*	*
8r	8r	.
8a-'/ 8cc'/	32r	.
.	32ccc\LLL	ff
.	32aa-\	.
.	32cc\JJJ	.
=175	=175	=175
(8b-/ 8dd-/L	32r	.
.	32ddd-\LLL	.
.	32bb-\	.
.	32cc\JJJ	.
8g/) 8b-/J	32r	.
.	32bb-\LLL	.
.	32gg\	.
.	32cc\JJJ	.
8e'/ 8g'/L	32r	.
.	32gg\LLL	.
.	32ee\	.
.	32cc\JJJ	.
8f'/ 8a-'/J	32r	.
.	32aa-\LLL	.
.	32ff\	.
.	32cc\JJJ	.
=176	=176	=176
(8b-/ 8dd-/L	32r	.
.	32ddd-\LLL	.
.	32bb-\	.
.	32cc\JJJ	.
8g/) 8b-/J	32r	.
.	32bb-\LLL	.
.	32gg\	.
.	32cc\JJJ	.
8e'/ 8g'/L	32r	.
.	32gg\LLL	.
.	32ee\	.
.	32cc\JJJ	.
8f'/ 8a-'/J	32r	.
.	32aa-\LLL	.
.	32ff\	.
.	32cc\JJJ	.
=177	=177	=177
8B-'/ 8d-'/ 8g'/	8dd-'\ 8gg'\ 8bb-'\	f
8r	8r	.
8c'/ 8e'/ 8g'/	8b-'\ 8ee'\ 8gg'\	.
8r	8r	.
=178	=178	=178
8d-'/ 8f'/	8a-'\ 8dd-'\ 8ff'\	.
8r	8r	.
4r	4r	.
*clefF4	*	*
=179	=179	=179
8BBBn'/ 8BBn'/	8A-'/ 8dn'/ 8f'/	pp
8r	8r	.
4r	4r	.
=180	=180	=180
8BB-'/ 8C'/L	16r	.
.	16G/ 16e/LL	<
8EE/ 8C/	16r	.
.	16B-/ 16g/JJ	.
8FF'/ 8C'/	16r	.
.	16An/ 16f/LL	.
8CC'/ 8C'/J	16r	.
.	16f/ 16a/JJ	.
=181	=181	=181
8GG'/ 8C'/L	16r	.
.	16e\ 16b-\LL	.
8CC'/ 8C'/	16r	.
.	16b-\ 16ee\JJ	.
8FF'/ 8C'/	16r	.
.	16a\ 16ff\LL	.
8CC/ 8C/J	16r	.
.	16ff\ 16aa\JJ	.
=182	=182	=182
8GG'/ 8C'/L	16r	.
.	16ee\ 16bb-\LL	.
8BB-'/ 8C'/	16r	.
.	16ee\ 16gg\ 16ccc\JJ	.
8AA'/ 8C'/	16r	.
.	16ff\ 16aa\ 16ccc\LL	.
8FF'/ 8C'/J	16r	.
.	16aa\ 16ccc\ 16fff\JJ	.
=183	=183	=183
8GG/ 8C/L	16r	.
.	16gg\ 16ccc\ 16eee\LL	.
8BB-'/ 8C'/	16r	.
.	16ee\ 16gg\ 16ccc\JJ	.
8AA'/ 8C'/	16r	.
.	16ff\ 16aa\ 16ccc\LL	.
8FF'/ 8C'/J	16r	.
.	16aa\ 16ccc\ 16fff\JJ	.
=184	=184	=184
8BB-'\ 8D'\ 8G'\	8r	.
8r	(24ddd\LL	f
.	24ccc#\	.
.	24eee\JJ)	.
8B-'\ 8d'\ 8g'\	8ddd'\	.
8r	(24bb-\LL	.
.	24aa\	.
.	24cccn\JJ)	.
=185	=185	=185
2r	8bb-'\	.
.	(24gg\LL	.
.	24ff#\	.
.	24aa\JJ)	.
.	8gg'\	.
.	(24dd\LL	.
.	24cc#\	.
.	24ee\JJ)	.
=186	=186	=186
8r	8dd'\	.
(4G\	(4g/	.
16A\LL	16a/LL	.
16B-\JJ)	16b-/JJ)	.
=187	=187	=187
4c\	([4ccn\	f
4C\ 4E\ 4G\ 4B-\	24cc\LL]	.
.	24dd\	.
.	24cc\JJ	.
.	24b-\LL	.
.	24a\	.
.	24g\JJ)	.
=188	=188	=188
*^	*^	*
8F'\ 8A'\	8r	8r	8f'/	.
*v	*v	*	*	*
*clefG2	*	*	*
*^	*	*	*
(4g/	4.d\ 4.f\	(4gg/	4.ff\	ff
16a/LL	.	16aa/LL	.	.
16bn/JJ)	.	16bbn/JJ)	.	.
*v	*v	*	*	*
*	*v	*v	*
=189	=189	=189
4c/ 4f/ 4a/ 4cc/	([4ccc\	.
4c/ 4g/ 4b-/	32ccc\LLL]	.
.	32ddd\	.
.	32ccc\	.
.	32bbn\JJJ	.
.	24ccc\LL	.
.	24ddd\	.
.	24eee\JJ)	.
*clefF4	*	*
=190	=190	=190
(24F\LL	8fff\	p
24A\	.	.
24c\JJ)	.	.
24F\LL	8r	.
24A\	.	.
24c\JJ	.	.
24F\LL	8cc'\ 8ccc'\L	p
24A\	.	.
24c\JJ	.	.
24F\LL	8cc'\ 8ccc'\J	.
24A\	.	.
24c\JJ	.	.
=191	=191	=191
24F\LL	8a'\ 8aa'\	.
24A\	.	.
24c\JJ	.	.
24F\LL	8r	.
24A\	.	.
24c\JJ	.	.
24A\LL	8ff'\ 8fff'\L	.
24c\	.	.
24f\JJ	.	.
24A\LL	8ff'\ 8fff'\J	.
24c\	.	.
24f\JJ	.	.
*clefG2	*	*
=192	=192	=192
24B-/ 24d/LL	8dd'\ 8ddd'\	.
24f/	.	.
24g/JJ	.	.
24B-/ 24d/LL	8r	.
24f/	.	.
24g/JJ	.	.
*	*clefF4	*clefF4
24Bn/ 24d/LL	8BBn'/L	f
24f/	.	.
24g/JJ	.	.
24B/ 24d/LL	8BB'/J	.
24f/	.	.
24g/JJ	.	.
=193	=193	=193
.	(BBnq/	.
24c/LL	2C/)	.
24f/	.	.
24a/JJ	.	.
24c/LL	.	.
24f/	.	.
24a/JJ	.	.
24c/LL	.	.
24e/	.	.
24g/JJ	.	.
24c/LL	.	.
24e/	.	.
24g/JJ	.	.
*clefF4	*	*
=194	=194	=194
32F\LLL	4FF/	p
32A\	.	.
32c\	.	.
32f\JJJ	.	.
32F\LLL	.	.
32A\	.	.
32c\	.	.
32f\JJJ	.	.
*	*clefG2	*clefG2
32F\LLL	(32cc\LLK	p
32A\	16.ccc'\JJ)	.
32c\	.	.
32f\JJJ	.	.
32F\LLL	(32cc\LLK	.
32A\	16.ccc'\JJ)	.
32c\	.	.
32f\JJJ	.	.
=195	=195	=195
32F\LLL	(32a\LLK	.
32A\	16.aa'\JJ)	.
32c\	.	.
32f\JJJ	.	.
32F\LLL	8r	.
32A\	.	.
32c\	.	.
32f\JJJ	.	.
24A\LL	(32ff\LLK	.
.	16.fff'\JJ)	.
24c\	.	.
24f\JJ	.	.
24A\LL	(32ff\LLK	.
.	16.fff'\JJ)	.
24c\	.	.
24f\JJ	.	.
*clefG2	*	*
=196	=196	=196
32B-/LLL	(32dd\LLK	.
32d/	16.ddd'\JJ)	.
32f/	.	.
32g/JJJ	.	.
32B-/LLL	8r	.
32d/	.	.
32f/	.	.
32g/JJJ	.	.
*	*clefF4	*clefF4
32Bn/LLL	8BBn'/L	f
32d/	.	.
32f/	.	.
32g/JJJ	.	.
32B/LLL	8BB'/J	.
32d/	.	.
32f/	.	.
32g/JJJ	.	.
=197	=197	=197
.	(BBnq/	.
24c/LL	2C/)	ff
24f/	.	.
24a/JJ	.	.
24c/LL	.	.
24f/	.	.
24a/JJ	.	.
24c/LL	.	.
24e/	.	.
24g/JJ	.	.
24c/LL	.	.
24e/	.	.
24g/JJ	.	.
*clefF4	*	*
=198	=198	=198
32F\LLL	4FF/	.
32A\	.	.
32c\	.	.
32f\JJJ	.	.
32F\LLL	.	.
32A\	.	.
32c\	.	.
32f\JJJ	.	.
*	*clefG2	*clefG2
24F\LL	8bbn'\L	p
24A-\	.	.
24c\JJ	.	.
24F\LL	8bb'\J	.
24A-\	.	.
24c\JJ	.	.
=199	=199	=199
.	bbnq/	.
32C\LLL	2ccc\	.
32F\	.	.
32G\	.	.
32c\JJJ	.	.
32C\LLL	.	.
32F\	.	.
32G\	.	.
32c\JJJ	.	.
32C\LLL	.	.
32E\	.	.
32G\	.	.
32c\JJJ	.	.
32C\LLL	.	.
32E\	.	.
32G\	.	.
32c\JJJ	.	.
=200	=200	=200
32FF/LLL	4ff\ 4fff\	.
32AA/	.	.
32C/	.	.
32F/JJJ	.	.
32FF/LLL	.	.
32AA/	.	.
32C/	.	.
32F/JJJ	.	.
24FF/LL	8bn'\L	<
24AA/	.	.
24C/JJ	.	.
24FF/LL	8b'\J	.
24AA/	.	.
24C/JJ	.	.
=201	=201	=201
.	(bnq/	.
32CC/LLL	2cc\)	ff
32FF/	.	.
32GG/	.	.
32C/JJJ	.	.
32CC/LLL	.	.
32FF/	.	.
32GG/	.	.
32C/JJJ	.	.
32CC/LLL	.	.
32EE/	.	.
32GG/	.	.
32C/JJJ	.	.
32CC/LLL	.	.
32EE/	.	.
32GG/	.	.
32C/JJJ	.	.
=202	=202	=202
8FF'/	8f'/ 8ff'/	.
8r	8r	.
8CC'/ 8C'/	8c'/ 8cc'/	.
8r	8r	.
=203	=203	=203
4FFF\ 4FF\	4F/ 4f/	.
4r	4r	.
==:|!	==:|!	==:|!
*-	*-	*-
!!!ENC: Craig Stuart Sapp
!!!END: 2005/08/25/
